icons/folder.svg

<svg width="24" height="24" viewBox="0 0 24 24" fill="none" xmlns="http://www.w3.org/2000/svg">
<path d="M3 7C3 5.89543 3.89543 5 5 5H7.4C8.02951 5 8.62229 5.29639 9 5.8L10.05 7.2C10.4277 7.70361 11.0205 8 11.65 8H19C20.1046 8 21 8.89543 21 10V17C21 18.1046 20.1046 19 19 19H5C3.89543 19 3 18.1046 3 17V13.5V8.75V7Z" stroke="black" stroke-width="2"/>
</svg>

<svg
  xmlns="http://www.w3.org/2000/svg"
  width="24"
  height="24"
  viewBox="0 0 24 24"
  fill="none"
  stroke="currentColor"
  stroke-width="2"
  stroke-linecap="round"
  stroke-linejoin="round"
>
  <path d="M3 7a2 2 0 0 1 2-2h2.4a2 2 0 0 1 1.6.8l1.05 1.4a2 2 0 0 0 1.6.8H19a2 2 0 0 1 2 2v7a2 2 0 0 1-2 2H5a2 2 0 0 1-2-2z" />
</svg>
